X: 24527
T: Lucy Locket's
R: jig
M: 6/8
K: Gmajor
|:edc BGG|ABA AGE|edc BGG|ABA ABc|
edc BGG|AB/B/A AGE|def gdd|edc BGG:|
|:def g2a|bbb bab|c'ba bag|abg fdd|
edc BGG|edc BGG|AA/A/A AGA|Bcd2<e2:|
def g2a|bbb bab|c'ba bag|abg fz2|
edc B z d-|dc^A =A=FF|^A=AG D^A,A,|A,^A,DFz2||

